src/static/img/copy_icon.svg

<svg width="48" height="48" viewBox="0 0 48 48" fill="none" xmlns="http://www.w3.org/2000/svg">
<path d="M9 43.95C8.2 43.95 7.5 43.65 6.9 43.05C6.3 42.45 6 41.75 6 40.95V10.8H9V40.95H32.7V43.95H9ZM15 37.95C14.2 37.95 13.5 37.65 12.9 37.05C12.3 36.45 12 35.75 12 34.95V6.95001C12 6.15001 12.3 5.45001 12.9 4.85001C13.5 4.25001 14.2 3.95001 15 3.95001H37C37.8 3.95001 38.5 4.25001 39.1 4.85001C39.7 5.45001 40 6.15001 40 6.95001V34.95C40 35.75 39.7 36.45 39.1 37.05C38.5 37.65 37.8 37.95 37 37.95H15ZM15 34.95H37V6.95001H15V34.95Z" fill="#1E293B"/>
</svg>

<svg xmlns="http://www.w3.org/2000/svg" height="48" width="48"><path d="M9 43.95q-1.2 0-2.1-.9-.9-.9-.9-2.1V10.8h3v30.15h23.7v3Zm6-6q-1.2 0-2.1-.9-.9-.9-.9-2.1v-28q0-1.2.9-2.1.9-.9 2.1-.9h22q1.2 0 2.1.9.9.9.9 2.1v28q0 1.2-.9 2.1-.9.9-2.1.9Zm0-3h22v-28H15v28Zm0 0v-28 28Z"/></svg>
